X:1
T:Adieu delices
T:Clemens non Papa (c. 1510 - 1555)
T:Adieu delices
T:(C) Wim Looyestijn 2019. May be freely copied for non-commercial use.
T:(C) Wim Looyestijn 2019. May be freely copied for non-commercial use.
T:(C) Wim Looyestijn 2019. May be freely copied for non-commercial use.
T:(C) Wim Looyestijn 2019. May be freely copied for non-commercial use.
T:(C) Wim Looyestijn 2019. May be freely copied for non-commercial use.
T:(C) Wim Looyestijn 2019. May be freely copied for non-commercial use.
T:(C) Wim Looyestijn 2019. May be freely copied for non-commercial use.
C:Clemens non Papa
C:(c. 1510 - 1555)
Z:(C) Wim Looyestijn 2019. May be freely copied for non-commercial use.
%%score [ 1 2 3 4 ]
L:1/8
Q:1/4=120
M:2/2
K:C
V:1 alto1 nm="Superius"
V:2 alto nm="Contra tenor"
V:3 tenor nm="Tenor"
V:4 bass nm="Bassus"
V:1
 x8 | z8 | x8 | z4 E4 | E4 E4 | E4 E4 | D2 E2 F2 G2 | A2 B2 c4- | c2 B2 A2 G2 | A4 A4 | G8- | %11
w: |||A-|dieu de-|li- ces|de _ _ _|_ _ mon|_ _ _ _|ceur, mon|_|
 G4 F4 | E8- | E4 F4- | F4 E2 D2 | C4 E4 | E4 E4 | G4 A4 | F4 F4 | E4 A4 | G2 E2 G4- | G2 F2 E4- | %22
w: ||* ceur,|_ _ _|* a-|dieu mon|mais- tr'et|mon seig-|neur, a-|dieu mon mais-|* tr'et mon|
 E4 D4 | E8 | z4 E4 | G6 A2 | B4 c4 | B4 c4- | c4 B2 A2 | G2 F2 E2 D2 | C4 c4- | c2 B2 A4- | %32
w: _ seig-|neur,|a-|dieu mon|mais- tr'et|mon seig-|||||
 A4 G4 | A8- | A8 | z4 c4 | c4 c4 | B4 G4 | A8- | A4 G4 | E4 G4 | F4 E4- | E4 D4 | E8- | E8 | z8 | %46
w: |neur,|_|a-|dieu vray|es- tocq|de|_ no-|bles- *|||se,|_||
 z4 A4 | D4 A4 | A4 A4 | G4 F2 E2 | F8 | E8- | E8 | z8 | E8 | E4 E4 | A4 G2 F2 | G8 | z4 F4 | E8 | %60
w: a-|dieu au|quel gist|ma _ _|lies-|se,|_||a-|dieu plu-|sieurs _ _|_|ro-|yaulx|
 D8 | E4 G4 | G8 | z4 c4 | B4 A4 | G4 A4 | G4 F4 | E4 A4 | G4 F4 | G4 F4- | F2 E2 E4- | E4 D4 | %72
w: ban-|quetz, a-|dieu,|a-|dieu, a-|dieu e-|pi- cu-|rieulx mectz.|_ _||||
 E8- | E8- | E16 |] %75
w: |||
V:2
 x8 | z8 | x8 | z4 A,4 | C4 C4 | B,4 C4 | A,4 D4 | C6 B,A, | E8 | z4 E4 | E4 E4 | D6 C2 | %12
w: |||A-|dieu de-|li- ces|de mon|_ _ _|ceur,|a-|dieu de-|li- ces|
 B,2 A,2 C4- | C2 B,2 A,4- | A,4 G,4 | A,4 A,4 | C6 D2 | E4 C4 | D4 D4 | C8- | C8 | z4 C4 | %22
w: _ _ de|_ mon ceur,|_ a-|dieu mon|mais- *|tre et|mon seig-|neur,|_|a-|
 A,4 B,4 | C6 A,2 | B,4 C4 | G,4 E2 D2 | E2 F2 G4- | G2 F2 E4- | E2 DC D4 | E8- | E4 D2 C2 | %31
w: dieu mon|mais- tr'et|mon seig-|neur, et _|_ _ _|* * mon|_ _ _ _|seig-||
 E4 F4 | E8 | z4 E4 | A,4 E4 | F4 F4 | E6 C2 | D4 E4- | E4 D4 | E6 DC | B,4 G,4 | A,4 C4- | %42
w: |neur,|a-|dieu vray|es- tocq|de _|no- bles-||se, _ _|_ _|no- bles-|
 C2 B,2 A,4- | A,4 G,4 | A,4 A,4 | A,2 B,2 C2 D2 | E4 F4- | F4 E4- | E4 D4 | B,4 C4 | A,4 D4 | %51
w: ||se, au|quel _ _ _|_ gist|_ _|* ma|lies- se,|ma _|
 C4 C4 | B,6 C2 | D2 C4 B,A, | B,8 | z4 C4 | E4 E4 | E4 E4 | D6 C2 | B,4 C4 | A,8 | z4 E4 | E4 E4 | %63
w: _ lies-|||se,|a-|dieu plu-|sieurs ro-|yaulx _|_ ban-|quetz,|a-|dieu, a-|
 G8- | G4 F4 | E4 C4 | E4 D4 | B,4 E4 | E4 C4 | E4 D4 | B,4 C4 | A,6 B,2 | C2 A,2 C4- | %73
w: dieu,|_ e-|pi- cu-|rieulx mectz,|a- dieu,|a- dieu|e- pi-|cu- rieulx|mectz. _|_ _ _|
 C4 B,2 A,2 | B,16 |] %75
w: ||
V:3
 x8 | z8 | x8 | E,8 | A,4 A,4 | G,4 A,4 | F,4 F,4 | E,4 A,4 | A,4 A,4 | C8- | C4 B,2 A,2 | %11
w: |||A-|dieu de-|li- ces|de mon|ceur, a-|dieu de-|li-||
 B,4 A,4- | A,4 G,4 | A,8 | D,8 | E,8 | z8 | z8 | z8 | z4 E,4 | E,4 E,4 | G,4 A,4 | F,4 F,4 | %23
w: * ces|_ de|mon|_|ceur,||||a-|dieu mon|mais- *|tre et|
 E,4 E,4 | G,6 A,2 | B,4 C4 | B,4 E4- | E2 D2 C2 B,2 | A,8 | z4 A,4 | A,4 A,4 | C4 D4 | B,4 B,4 | %33
w: mon seig-|neur, _|_ et|mon seig-||neur,|a-|dieu mon|mais- tr'et|mon seig-|
 A,8 | z4 A,4 | D,4 A,4 | A,4 A,4 | G,4 E,4 | F,8 | E,6 F,2 | G,2 A,2 B,2 C2 | D4 G,4 | A,8 | B,8 | %44
w: neur,|a-|dieu vray|es- tocq|de no-|bles-|se, _|_ _ _ _|* es-|tocq|de|
 C8 | D4 E4 | C8 | B,4 C4 | A,8 | z4 A,4 | D,4 A,4 | A,4 A,4 | G,4 E,4 | F,8 | E,8 | z4 A,4 | %56
w: no-|bles- *|||se,|a-|dieu au|quel gist|ma _|lies-|se,|a-|
 C4 C4 | B,4 C4 | B,4 A,4- | A,4 G,4- | G,4 F,4 | G,4 C4 | C8 | z4 E4 | D6 C2 | B,4 A,4 | C4 A,4 | %67
w: dieu plu-|sieurs ro-|yaulx ban-|||quetz, a-|dieu,|a-|dieu, _|_ e-|pi- cu-|
 G,4 C4 | B,4 A,4 | C4 A,4 | G,4 A,4 | F,8 | E,8 | A,8 | G,16 |] %75
w: rieulx mectz,|a- dieu|e- pi-|cu- rieulx|mectz.|_|||
V:4
"^Source: Second Livre des Chansons a Quatre, Imprimé à Lovain par Pierre Phalese, D.M.LIX.\nOriginal is badly damaged in Contratenor bars 36, 53 and 71; supplied notes are editorial.\nSuggested musica ficta are placed above the stave, in-line accidentals are original." x8 | %1
w: |
 z8 | x8 | A,,8 | A,,2 B,,2 C,2 D,2 | E,4 C,4 | D,4 D,4 | A,,8 | z4 A,4 | A,4 A,4 | E,6 F,2 | %11
w: ||A-|dieu _ de- *|li- ces|de mon|ceur,|a-|dieu de-|li- *|
 G,4 E,4 | F,4 F,4 | D,4 E,4 | B,,8 | A,,8 | z4 E,4 | E,4 F,4 | D,2 E,2 F,2 G,2 | A,4 A,,4 | %20
w: * ces|_ de|mon _|_|ceur,|a-|dieu mon|mais- * * *|tre et|
 C,6 D,2 | E,4 C,4 | D,4 D,4 | A,,8 | E,8 | z4 E,4 | E,4 E,4 | G,4 A,4 | F,4 F,4 | %29
w: mon _|_ _|* seig-|neur,|_|a-|dieu mon|mais- tre|et mon|
 E,2 D,2 C,2 B,,2 | A,,4 A,4- | A,4 D,4 | E,8 | A,,8- | A,,8 | z8 | z8 | z8 | D,8 | A,,4 E,4 | %40
w: _ _ _ _|* seig-|||neur,|_||||a-|dieu vray|
 E,4 E,4 | D,4 C,4 | F,8 | E,8 | z4 A,4 | D,4 A,4 | A,4 A,4 | G,4 F,2 E,2 | F,8 | E,4 C,4 | %50
w: es- tocq|de no-|bles-|se,|a-|dieu vray|es- tocq|de _ _|no-|bles- se,|
 D,6 C,2 | A,,2 B,,2 C,2 D,2 | E,2 F,2 G,4 | F,2 E,2 A,4- | A,4 ^G,4 | A,4 A,,4 | %56
w: no- *|||* * bles-||se, a-|
 A,,2 B,,2 C,2 D,2 | E,6 F,2 | G,4 D,4 | E,4 C,4 | D,8 | C,8 | z4 C,4 | C,4 C,4 | G,4 D,4 | %65
w: dieu _ plu- *|sieurs _|_ ro-|yaulx _|ban-|quetz,|a-|dieu e-|pi- cu-|
 E,4 F,4 | C,4 D,4 | E,4 A,,4 | E,4 F,4 | C,4 D,4 | E,4 C,4 | D,8 | A,,8- | A,,8 | E,16 |] %75
w: |rieulx _|_ mectz,|a- dieu|e- pi-|cu- rieulx|mectz.|_|||

